X:1
T:Whiskey You're the Devil    [G]
T:Whiskey You're the Devil    [G]
T:Jerry Barrington 1873
C:Jerry Barrington 1873
L:1/8
M:4/4
K:G
V:1 treble 
V:1
 d |"G" GGGA Bddd |"Am" eAAB"D7" cded |"C" gage"G" eddB |"A7" AAAB"D7" AFED |]"^Chorus" x8 |] %6
w: Oh|now, brave boys, we'll run for march, and|not to Por- tu- gal or Spain, the|drums are beat- ing, ban- ners fly, the|devil at home we'll find to- night, Oh||
"G" G2 B>A G3 d/B/ | G/G/G/G/ G/A/B/c/ d3 d/B/ |"Am" A/A/A/A/ A/B/c/d/ e2"D7" z d | %9
w: Love, fare thee well, with me|ti- ther- ee- i doo- dle- um- a day, with me|ti- ther- ee- i doo- dle- um- a day, My|
"C" gage"G" ed"C"ge |"G" dB"D7" A>B"G" G2 z2 ||"G" GG G>A B d2 d |"C" edef g2 | %13
w: right- fol to- ra- lad- die o, there's|whis- ky in the jar.|Whis- ky you're the dev- il, you're|lead- ing me a- stray,|
"C" g>a ge"G" e d2 B |"A7" A>A AB"D7" A3 d |"G" GGGA Bddd |"C" edef g2 gf | %17
w: o- ver hills and moun- tains and|to A- me- ri- cay. You're|strong- er, sweet- er, de- cent- er, you're|spunk- i- er than tay, Oh, *|
"G" ed"C" [cg]>f"G" ed"Em" BG/ |"Am" A2-"D7" A2"G" G3 |] %19
w: whis- ky you're my dar- ling drunk or|so- * ber.|

